src/lib/packages/icons/src/assets/filled/home-roof-user.svg

<svg width="24" height="24" viewBox="0 0 24 24" fill="none" xmlns="http://www.w3.org/2000/svg">
<path d="M21.477 9.08502L14.0649 2.98907C12.8679 2.00707 11.133 2.00607 9.93598 2.98907L2.52399 9.08404C2.20499 9.34704 2.15796 9.81907 2.42096 10.1401C2.68596 10.4601 3.15699 10.5051 3.47699 10.2431L4.49994 9.40106V18.0001C4.49994 20.2901 5.70994 21.5001 7.99994 21.5001H15.9999C18.2899 21.5001 19.4999 20.2901 19.4999 18.0001V9.40204L20.5229 10.2441C20.6629 10.3591 20.8319 10.4151 20.9999 10.4151C21.2159 10.4151 21.4309 10.322 21.5789 10.142C21.8429 9.82003 21.796 9.34802 21.477 9.08502ZM11.9999 9.00006C13.1859 9.00006 14.15 9.96408 14.15 11.1501C14.15 12.3361 13.1849 13.3001 11.9999 13.3001C10.8149 13.3001 9.84992 12.3361 9.84992 11.1501C9.84992 9.96408 10.8139 9.00006 11.9999 9.00006ZM15.4999 17.5001C15.4999 17.7761 15.2759 18.0001 14.9999 18.0001H8.99994C8.72394 18.0001 8.49994 17.7761 8.49994 17.5001V17.1971C8.49994 15.8571 9.48098 14.5001 11.358 14.5001H12.6409C14.5179 14.5001 15.499 15.8561 15.499 17.1971V17.5001H15.4999Z" fill="currentColor"/>
</svg>

<svg xmlns="http://www.w3.org/2000/svg" width="24" height="24" fill="none"><path fill="currentColor" d="m21.477 9.085-7.412-6.096a3.26 3.26 0 0 0-4.129 0L2.524 9.084a.751.751 0 0 0 .953 1.16L4.5 9.4V18c0 2.29 1.21 3.5 3.5 3.5h8c2.29 0 3.5-1.21 3.5-3.5V9.401l1.023.842a.749.749 0 0 0 1.056-.102.751.751 0 0 0-.102-1.057ZM12 9c1.186 0 2.15.964 2.15 2.15S13.185 13.3 12 13.3a2.152 2.152 0 0 1-2.15-2.15C9.85 9.964 10.814 9 12 9Zm3.5 8.5a.5.5 0 0 1-.5.5H9a.5.5 0 0 1-.5-.5v-.303c0-1.34.981-2.697 2.858-2.697h1.283c1.877 0 2.858 1.356 2.858 2.697v.303Z"/></svg>
